src/topics/icons/egghead.svg

<svg height="263" preserveAspectRatio="xMidYMid" viewBox="0 0 256 263" width="256" xmlns="http://www.w3.org/2000/svg"><path d="m128 262.399221c-14.4 0-28-3.190264-40.8-7.97566-12.8-5.582962-24-12.761056-32.8-23.129415-9.6-9.570792-16.8-20.736716-21.6-33.497773-1.6-4.785396-3.2-9.570792-4.8-15.153754h-.8l-.8-7.97566c-9.6-3.98783-16.8-13.558623-19.2-22.331849-3.2-11.165924-6.4-27.914811-7.2-43.068565 0-11.9634904 6.4-23.1294147 17.6-27.9148108 7.2-3.1902641 17.6-6.3805282 29.6-7.9756602 8-16.7488865 16.8-31.9026409 26.4-43.0685652 16.8-19.9391505 35.2-30.3075088 54.4-30.3075088s37.6 10.3683583 54.4 30.3075088c9.6 11.1659243 18.4 25.5221127 25.6 43.0685652 12 2.3926981 22.4 4.7853961 30.4 7.9756602 11.2 4.7853961 17.6 15.9513204 17.6 27.9148108-.8 17.546452-4.8 36.688037-7.2 43.866131-2.4 9.570792-9.6 19.141585-19.2 22.331849l-.8 7.97566h-.8c-.8 4.785396-2.4 10.368358-4.8 15.153754-4.8 12.761057-12 23.926981-21.6 33.497773-9.6 9.570793-20.8 17.546453-32.8 23.129415-12.8 4.785396-26.4 7.178094-40.8 7.178094z" fill="#fff"/><path d="m126.918924 19.2475113c45.461263 0 82.1493 97.3030547 82.1493 142.7643177s-36.688037 82.1493-82.1493 82.1493c-45.4612631 0-82.1493-36.688037-82.1493-82.1493s36.6880369-142.7643177 82.1493-142.7643177z" fill="#fcfbfa"/><path d="m231.400073 97.4089814-33.497773 11.9634906s4.785396 15.95132 5.582962 15.95132l33.497773-3.98783z" fill="#252526"/><path d="m23.2353414 97.4089814 33.4977729 11.9634906s-4.7853962 15.95132-5.5829622 15.95132l-33.4977729-3.98783z" fill="#252526"/><g fill="#e0e0e0"><path d="m92.6235853 95.0162833c8.7732257 0 10.3683587 7.1780947 10.3683587 8.7732267.797566 4.785396 1.595132 11.165924 2.392698 17.546452 0 1.595132 0 3.190264-.797566 4.785396-.797566-3.98783-.797566-7.97566-1.595132-11.96349 0-1.595132-2.392699-8.773226-10.3683587-8.773226-4.7853962 0-21.5342826.797566-37.4856031 3.190264.7975661-3.98783 2.3926981-7.178095 3.9878301-11.1659246 14.3561884-2.3926981 28.7123768-3.1902641 33.497773-2.3926981z"/><path d="m209.068224 158.023999c-29.509942-1.595132-55.032055-11.165924-60.615017-14.356188-4.785396-2.392698-10.368359-6.380529-11.963491-17.546453-.797566 12.761057 1.595132 23.926981 12.761057 29.509943.797566.797566 23.129414 11.165924 59.019885 13.558622v-7.178094c.797566-1.595132.797566-3.190264.797566-3.98783z"/><path d="m45.56719 158.023999c29.5099428-1.595132 55.032055-11.165924 60.615018-14.356188 4.785396-2.392698 10.368358-6.380529 11.96349-17.546453.797566 12.761057-1.595132 23.926981-12.761056 29.509943-.797566.797566-23.129415 11.165924-59.019886 13.558622v-7.178094c-.797566-1.595132-.797566-3.190264-.797566-3.98783z"/><path d="m161.214263 95.0162833c-8.773226 0-10.368358 7.1780947-10.368358 8.7732267-.797566 4.785396-1.595132 11.165924-2.392698 17.546452 0 1.595132 0 3.190264.797566 4.785396.797566-3.98783.797566-7.97566 1.595132-11.96349 0-1.595132 2.392698-8.773226 10.368358-8.773226 4.785396 0 21.534283.797566 37.485603 3.190264-.797566-3.98783-2.392698-7.178095-3.98783-11.1659246-14.356188-2.3926981-28.712377-3.1902641-33.497773-2.3926981z"/></g><path d="m55.1379822 85.4454911c7.9756602-19.1415846 17.5464525-36.688037 27.9148108-48.6515274 13.5586224-16.7488864 28.712377-25.5221127 43.866131-25.5221127 15.153755 0 29.509943 8.7732263 43.866131 25.5221127 10.368359 12.7610564 19.939151 29.5099428 27.914811 48.6515274v.797566h-.797566c-3.190264 0-4.785396-.797566-7.97566-.797566-8.773226-21.5342826-24.724547-48.6515274-44.663697-60.6150177-6.380528-3.1902641-11.963491-5.5829621-18.344019-5.5829621s-11.96349 1.595132-18.344018 5.5829621c-19.9391509 11.1659243-35.0929053 39.0807351-44.6636975 60.6150177-3.1902641 0-4.7853962.797566-7.9756602.797566h-.7975661z" fill="#56555c"/><path d="m209.86579 147.655641h-6.380528-.797566v-.797566c-1.595132-15.951321-6.380528-33.497773-12.761056-51.0442257l-.797566-1.595132h1.595132c2.392698 0 4.785396.797566 7.178094.797566h.797566v.797566c5.582962 17.5464527 10.368358 35.8904707 11.96349 51.0442257v.797566z" fill="#56555c"/><path d="m202.687696 108.574906c-1.595132-3.98783-2.392698-7.975661-3.98783-11.9634906v-.7975661h-.797566c-2.392698-.797566-4.785396-.797566-7.178094-.797566h-1.595132l.797566 1.5951321c1.595132 3.9878296 2.392698 7.9756606 3.98783 11.9634906 3.98783-.797566 6.380528-.797566 8.773226 0z" fill="#252526"/><path d="m43.9720579 146.060509c1.5951321-15.153755 6.3805282-33.497773 11.9634904-51.0442257v-.797566h.797566c2.392698 0 4.7853961-.797566 7.1780942-.797566h1.595132l-.797566 1.595132c-6.3805282 17.5464527-10.3683583 35.8904707-12.7610564 51.0442257v.797566h-.797566-6.3805281-.7975661z" fill="#56555c"/><path d="m56.7331143 95.0162833c-2.3926981 4.7853961-3.1902641 8.7732267-4.7853962 12.7610567 3.9878302-.797566 5.5829622-.797566 8.7732263-.797566 1.595132-3.98783 2.392698-7.9756606 3.9878301-11.9634907l.797566-1.595132h-1.595132c-2.3926981.797566-4.7853962 1.595132-7.1780942 1.595132z" fill="#252526"/><path d="m126.918924 251.339224c-11.96349 0-23.92698-2.392699-35.0929048-7.178095-11.1659243-4.785396-20.7367165-11.165924-28.7123768-19.93915-7.9756602-8.773226-14.3561883-18.344019-19.1415845-29.509943-4.7853961-11.165924-6.3805281-23.926981-6.3805281-36.688037v-.797566h.797566 7.1780942.797566v.797566c-.797566 11.96349 1.595132 22.331849 5.5829621 33.497773 3.9878302 10.368358 9.5707923 19.141584 16.7488865 27.117245 7.1780942 7.97566 16.7488865 14.356188 26.3196787 18.344018 10.3683587 4.785396 20.7367167 6.380528 31.9026407 6.380528s22.331849-2.392698 31.902641-6.380528 19.141585-10.368358 26.319679-18.344018c7.178094-7.975661 13.558622-16.748887 16.748886-27.117245 3.98783-10.368358 5.582962-21.534283 5.582962-33.497773v-.797566h.797566 7.178095.797566v.797566c.797566 12.761056-1.595132 24.724547-6.380529 36.688037-3.98783 11.165924-10.368358 20.736717-19.141584 29.509943-7.97566 8.773226-18.344019 15.153754-28.712377 19.93915-10.368358 3.98783-22.331848 7.178095-35.092905 7.178095z" fill="#56555c"/><path d="m46.364756 168.392357v-10.368358-.797566h-.797566-7.1780942-.797566v.797566 10.368358z" fill="#252526"/><path d="m216.246319 157.226433h-7.178095-.797566v.797566 10.368358h7.975661z" fill="#252526"/><path d="m221.031715 164.404527c-18.344019 0-35.092905-4.785396-51.044226-8.773226-7.97566-2.392698-15.153754-6.380528-20.736716-8.773226v-.797566c-13.558623-6.380528-14.356189-20.736717-13.558623-32.700207 0-3.190264-.797566-7.178094-3.98783-9.570792-1.595132-.797566-3.190264-1.595132-4.785396-1.595132s-3.98783.797566-4.785396 1.595132c-3.190264 2.392698-3.98783 6.380528-3.98783 9.570792 1.595132 11.96349.797566 25.522113-13.558622 31.902641-5.5829626 2.392698-12.7610568 7.97566-20.736717 10.368358-15.9513204 3.98783-32.7002069 8.773226-51.0442254 8.773226-7.1780942 0-13.5586223-7.178094-15.1537544-14.356188-2.3926981-10.368358-6.3805282-27.117245-6.3805282-41.473433 0-5.582962 3.1902641-11.9634906 8.7732263-14.3561887 19.1415845-8.7732262 58.2223196-11.9634903 74.971206-11.9634903 6.3805277 0 11.1659247 2.392698 15.1537547 6.3805281 5.582962-2.392698 11.165924-3.9878301 16.748886-3.9878301s11.165924 1.5951321 16.748887 3.9878301c3.190264-3.190264 7.97566-6.3805281 15.153754-6.3805281 9.570792 0 52.639357 1.595132 74.971206 11.1659243 5.582962 2.392698 8.773226 7.9756597 8.773226 13.5586227-.797566 14.356188-3.98783 32.700207-6.380528 43.068565-1.595132 7.178094-7.97566 14.356188-15.153754 14.356188zm-59.817452-69.3882437c-7.97566 0-9.570792 7.1780947-10.368358 7.9756607-.797566 3.98783-1.595132 10.368358-2.392698 17.546452 0 6.380528 2.392698 11.165924 7.178094 13.558622 17.546452 7.975661 38.283169 11.963491 62.21015 11.963491 1.595132 0 3.190264-1.595132 3.98783-3.190264 2.392698-8.773227 5.582962-22.331849 5.582962-35.092905 0-.797566-.797566-2.392698-1.595132-2.392698-15.153755-7.9756606-51.044226-10.3683587-64.602848-10.3683587zm-133.9910915 10.3683587c-.797566.797566-1.5951321 1.595132-1.5951321 2.392698 0 12.761056 3.1902641 26.319678 5.5829622 35.092905.797566 1.595132 2.392698 3.190264 3.9878301 3.190264 24.7245467 0 44.6636972-3.98783 62.2101497-11.963491 4.7853966-2.392698 7.1780946-7.178094 7.1780946-13.558622 0-5.582962-.797566-11.165924-2.392698-17.546452 0-1.595133-1.595133-7.9756607-10.3683588-7.9756607-6.3805281 0-45.4612632 1.5951321-64.6028477 10.3683587z" fill="#252526"/></svg>

<?xml version="1.0" encoding="UTF-8"?>
<svg width="256px" height="263px" viewBox="0 0 256 263" version="1.1" xmlns="http://www.w3.org/2000/svg" xmlns:xlink="http://www.w3.org/1999/xlink" preserveAspectRatio="xMidYMid">
	<g>
		<path d="M128,262.399221 C113.6,262.399221 100,259.208957 87.2,254.423561 C74.4,248.840599 63.2,241.662505 54.4,231.294146 C44.8,221.723354 37.6,210.55743 32.8,197.796373 C31.2,193.010977 29.6,188.225581 28,182.642619 L27.2,182.642619 L26.4,174.666959 C16.8,170.679129 9.6,161.108336 7.2,152.33511 C4,141.169186 0.8,124.420299 0,109.266545 C0,97.3030546 6.4,86.1371303 17.6,81.3517342 C24.8,78.1614701 35.2,74.971206 47.2,73.376074 C55.2,56.6271875 64,41.4734331 73.6,30.3075088 C90.4,10.3683583 108.8,0 128,0 C147.2,0 165.6,10.3683583 182.4,30.3075088 C192,41.4734331 200.8,55.8296215 208,73.376074 C220,75.7687721 230.4,78.1614701 238.4,81.3517342 C249.6,86.1371303 256,97.3030546 256,109.266545 C255.2,126.812997 251.2,145.954582 248.8,153.132676 C246.4,162.703468 239.2,172.274261 229.6,175.464525 L228.8,183.440185 L228,183.440185 C227.2,188.225581 225.6,193.808543 223.2,198.593939 C218.4,211.354996 211.2,222.52092 201.6,232.091712 C192,241.662505 180.8,249.638165 168.8,255.221127 C156,260.006523 142.4,262.399221 128,262.399221 Z" fill="#FFFFFF"></path>
		<path d="M126.918924,19.2475113 C172.380187,19.2475113 209.068224,116.550566 209.068224,162.011829 C209.068224,207.473092 172.380187,244.161129 126.918924,244.161129 C81.4576609,244.161129 44.769624,207.473092 44.769624,162.011829 C44.769624,116.550566 81.4576609,19.2475113 126.918924,19.2475113 Z" fill="#FCFBFA"></path>
		<path d="M231.400073,97.4089814 L197.9023,109.372472 C197.9023,109.372472 202.687696,125.323792 203.485262,125.323792 L236.983035,121.335962 L231.400073,97.4089814 Z" fill="#252526"></path>
		<path d="M23.2353414,97.4089814 L56.7331143,109.372472 C56.7331143,109.372472 51.9477181,125.323792 51.1501521,125.323792 L17.6523792,121.335962 L23.2353414,97.4089814 Z" fill="#252526"></path>
		<path d="M92.6235853,95.0162833 C101.396811,95.0162833 102.991944,102.194378 102.991944,103.78951 C103.78951,108.574906 104.587076,114.955434 105.384642,121.335962 C105.384642,122.931094 105.384642,124.526226 104.587076,126.121358 C103.78951,122.133528 103.78951,118.145698 102.991944,114.157868 C102.991944,112.562736 100.599245,105.384642 92.6235853,105.384642 C87.8381891,105.384642 71.0893027,106.182208 55.1379822,108.574906 C55.9355483,104.587076 57.5306803,101.396811 59.1258123,97.4089814 C73.4820007,95.0162833 87.8381891,94.2187173 92.6235853,95.0162833 Z" fill="#E0E0E0"></path>
		<path d="M209.068224,158.023999 C179.558282,156.428867 154.036169,146.858075 148.453207,143.667811 C143.667811,141.275113 138.084848,137.287282 136.489716,126.121358 C135.69215,138.882415 138.084848,150.048339 149.250773,155.631301 C150.048339,156.428867 172.380187,166.797225 208.270658,169.189923 L208.270658,162.011829 C209.068224,160.416697 209.068224,158.821565 209.068224,158.023999 Z" fill="#E0E0E0"></path>
		<path d="M45.56719,158.023999 C75.0771328,156.428867 100.599245,146.858075 106.182208,143.667811 C110.967604,141.275113 116.550566,137.287282 118.145698,126.121358 C118.943264,138.882415 116.550566,150.048339 105.384642,155.631301 C104.587076,156.428867 82.255227,166.797225 46.364756,169.189923 L46.364756,162.011829 C45.56719,160.416697 45.56719,158.821565 45.56719,158.023999 Z" fill="#E0E0E0"></path>
		<path d="M161.214263,95.0162833 C152.441037,95.0162833 150.845905,102.194378 150.845905,103.78951 C150.048339,108.574906 149.250773,114.955434 148.453207,121.335962 C148.453207,122.931094 148.453207,124.526226 149.250773,126.121358 C150.048339,122.133528 150.048339,118.145698 150.845905,114.157868 C150.845905,112.562736 153.238603,105.384642 161.214263,105.384642 C165.999659,105.384642 182.748546,106.182208 198.699866,108.574906 C197.9023,104.587076 196.307168,101.396811 194.712036,97.4089814 C180.355848,95.0162833 165.999659,94.2187173 161.214263,95.0162833 Z" fill="#E0E0E0"></path>
		<path d="M55.1379822,85.4454911 C63.1136424,66.3039065 72.6844347,48.7574541 83.052793,36.7939637 C96.6114154,20.0450773 111.76517,11.271851 126.918924,11.271851 C142.072679,11.271851 156.428867,20.0450773 170.785055,36.7939637 C181.153414,49.5550201 190.724206,66.3039065 198.699866,85.4454911 L198.699866,86.2430571 L197.9023,86.2430571 C194.712036,86.2430571 193.116904,85.4454911 189.92664,85.4454911 L189.92664,85.4454911 L189.92664,85.4454911 C181.153414,63.9112085 165.202093,36.7939637 145.262943,24.8304734 C138.882415,21.6402093 133.299452,19.2475113 126.918924,19.2475113 C120.538396,19.2475113 114.955434,20.8426433 108.574906,24.8304734 C88.6357551,35.9963977 73.4820007,63.9112085 63.9112085,85.4454911 L63.9112085,85.4454911 L63.9112085,85.4454911 C60.7209444,85.4454911 59.1258123,86.2430571 55.9355483,86.2430571 L55.1379822,86.2430571 L55.1379822,85.4454911 Z" fill="#56555C"></path>
		<path d="M209.86579,147.655641 L203.485262,147.655641 L202.687696,147.655641 L202.687696,146.858075 C201.092564,130.906754 196.307168,113.360302 189.92664,95.8138493 L189.129074,94.2187173 L190.724206,94.2187173 C193.116904,94.2187173 195.509602,95.0162833 197.9023,95.0162833 L198.699866,95.0162833 L198.699866,95.8138493 C204.282828,113.360302 209.068224,131.70432 210.663356,146.858075 L210.663356,147.655641 L209.86579,147.655641 Z" fill="#56555C"></path>
		<path d="M202.687696,108.574906 C201.092564,104.587076 200.294998,100.599245 198.699866,96.6114154 L198.699866,95.8138493 L197.9023,95.8138493 C195.509602,95.0162833 193.116904,95.0162833 190.724206,95.0162833 L189.129074,95.0162833 L189.92664,96.6114154 C191.521772,100.599245 192.319338,104.587076 193.91447,108.574906 C197.9023,107.77734 200.294998,107.77734 202.687696,108.574906 Z" fill="#252526"></path>
		<path d="M43.9720579,146.060509 C45.56719,130.906754 50.3525861,112.562736 55.9355483,95.0162833 L55.9355483,94.2187173 L56.7331143,94.2187173 C59.1258123,94.2187173 61.5185104,93.4211513 63.9112085,93.4211513 L65.5063405,93.4211513 L64.7087745,95.0162833 C58.3282463,112.562736 54.3404162,130.906754 51.9477181,146.060509 L51.9477181,146.858075 L51.1501521,146.858075 L44.769624,146.858075 L43.9720579,146.858075 L43.9720579,146.060509 Z" fill="#56555C"></path>
		<path d="M56.7331143,95.0162833 L56.7331143,95.0162833 L56.7331143,95.0162833 C54.3404162,99.8016794 53.5428502,103.78951 51.9477181,107.77734 C55.9355483,106.979774 57.5306803,106.979774 60.7209444,106.979774 C62.3160764,102.991944 63.1136424,99.0041134 64.7087745,95.0162833 L65.5063405,93.4211513 L63.9112085,93.4211513 C61.5185104,94.2187173 59.1258123,95.0162833 56.7331143,95.0162833 Z" fill="#252526"></path>
		<path d="M126.918924,251.339224 C114.955434,251.339224 102.991944,248.946525 91.8260192,244.161129 C80.6600949,239.375733 71.0893027,232.995205 63.1136424,224.221979 C55.1379822,215.448753 48.7574541,205.87796 43.9720579,194.712036 C39.1866618,183.546112 37.5915298,170.785055 37.5915298,158.023999 L37.5915298,157.226433 L38.3890958,157.226433 L45.56719,157.226433 L46.364756,157.226433 L46.364756,158.023999 C45.56719,169.987489 47.959888,180.355848 51.9477181,191.521772 C55.9355483,201.89013 61.5185104,210.663356 68.6966046,218.639017 C75.8746988,226.614677 85.4454911,232.995205 95.0162833,236.983035 C105.384642,241.768431 115.753,243.363563 126.918924,243.363563 C138.084848,243.363563 149.250773,240.970865 158.821565,236.983035 C168.392357,232.995205 177.96315,226.614677 185.141244,218.639017 C192.319338,210.663356 198.699866,201.89013 201.89013,191.521772 C205.87796,181.153414 207.473092,169.987489 207.473092,158.023999 L207.473092,157.226433 L208.270658,157.226433 L215.448753,157.226433 L216.246319,157.226433 L216.246319,158.023999 C217.043885,170.785055 214.651187,182.748546 209.86579,194.712036 C205.87796,205.87796 199.497432,215.448753 190.724206,224.221979 C182.748546,232.995205 172.380187,239.375733 162.011829,244.161129 C151.643471,248.148959 139.679981,251.339224 126.918924,251.339224 Z" fill="#56555C"></path>
		<path d="M46.364756,168.392357 L46.364756,158.023999 L46.364756,157.226433 L45.56719,157.226433 L38.3890958,157.226433 L37.5915298,157.226433 L37.5915298,158.023999 L37.5915298,168.392357 L37.5915298,168.392357 L46.364756,168.392357 L46.364756,168.392357 Z" fill="#252526"></path>
		<path d="M216.246319,157.226433 L216.246319,157.226433 L209.068224,157.226433 L208.270658,157.226433 L208.270658,158.023999 L208.270658,168.392357 L216.246319,168.392357 L216.246319,157.226433 L216.246319,157.226433 Z" fill="#252526"></path>
		<path d="M221.031715,164.404527 C202.687696,164.404527 185.93881,159.619131 169.987489,155.631301 C162.011829,153.238603 154.833735,149.250773 149.250773,146.858075 L149.250773,146.060509 C135.69215,139.679981 134.894584,125.323792 135.69215,113.360302 C135.69215,110.170038 134.894584,106.182208 131.70432,103.78951 C130.109188,102.991944 128.514056,102.194378 126.918924,102.194378 C125.323792,102.194378 122.931094,102.991944 122.133528,103.78951 C118.943264,106.182208 118.145698,110.170038 118.145698,113.360302 C119.74083,125.323792 118.943264,138.882415 104.587076,145.262943 L104.587076,145.262943 C99.0041134,147.655641 91.8260192,153.238603 83.850359,155.631301 C67.8990386,159.619131 51.1501521,164.404527 32.8061336,164.404527 L32.8061336,164.404527 C25.6280394,164.404527 19.2475113,157.226433 17.6523792,150.048339 C15.2596811,139.679981 11.271851,122.931094 11.271851,108.574906 C11.271851,102.991944 14.4621151,96.6114154 20.0450773,94.2187173 C39.1866618,85.4454911 78.2673969,82.255227 95.0162833,82.255227 C101.396811,82.255227 106.182208,84.647925 110.170038,88.6357551 C115.753,86.2430571 121.335962,84.647925 126.918924,84.647925 C132.501886,84.647925 138.084848,86.2430571 143.667811,88.6357551 C146.858075,85.4454911 151.643471,82.255227 158.821565,82.255227 C168.392357,82.255227 211.460922,83.850359 233.792771,93.4211513 C239.375733,95.8138493 242.565997,101.396811 242.565997,106.979774 C241.768431,121.335962 238.578167,139.679981 236.185469,150.048339 C234.590337,157.226433 228.209809,164.404527 221.031715,164.404527 L221.031715,164.404527 Z M161.214263,95.0162833 C153.238603,95.0162833 151.643471,102.194378 150.845905,102.991944 C150.048339,106.979774 149.250773,113.360302 148.453207,120.538396 C148.453207,126.918924 150.845905,131.70432 155.631301,134.097018 C173.177753,142.072679 193.91447,146.060509 217.841451,146.060509 C219.436583,146.060509 221.031715,144.465377 221.829281,142.870245 C224.221979,134.097018 227.412243,120.538396 227.412243,107.77734 C227.412243,106.979774 226.614677,105.384642 225.817111,105.384642 C210.663356,97.4089814 174.772885,95.0162833 161.214263,95.0162833 Z M27.2231715,105.384642 C26.4256055,106.182208 25.6280394,106.979774 25.6280394,107.77734 C25.6280394,120.538396 28.8183035,134.097018 31.2110016,142.870245 C32.0085676,144.465377 33.6036996,146.060509 35.1988317,146.060509 C59.9233784,146.060509 79.8625289,142.072679 97.4089814,134.097018 C102.194378,131.70432 104.587076,126.918924 104.587076,120.538396 C104.587076,114.955434 103.78951,109.372472 102.194378,102.991944 C102.194378,101.396811 100.599245,95.0162833 91.8260192,95.0162833 C85.4454911,95.0162833 46.364756,96.6114154 27.2231715,105.384642 Z" fill="#252526"></path>
	</g>
</svg>
